build/img/icon-stopwatch.svg

<svg width="30" height="37" viewBox="0 0 30 37" fill="none" xmlns="http://www.w3.org/2000/svg">
<path d="M3.84612 12.3638L2.34001 10.8724C1.52177 10.0626 1.52177 8.74442 2.34001 7.93407C3.15825 7.12399 4.48973 7.12399 5.30797 7.93407L6.91603 9.5261C8.5935 8.36942 10.5057 7.5688 12.5092 7.1846V5.11853H11.11C10.7235 5.11853 10.4104 4.80846 10.4104 4.42587V2.62497C10.4104 1.47911 11.3518 0.546997 12.5092 0.546997H18.1063C19.2637 0.546997 20.2052 1.47911 20.2052 2.62497V4.42587C20.2052 4.80846 19.892 5.11853 19.5055 5.11853H18.1063V7.1846C20.1095 7.56853 22.022 8.36942 23.6995 9.5261L25.3076 7.93407C26.1255 7.12399 27.457 7.12399 28.2755 7.93407C29.0938 8.74415 29.0938 10.0624 28.2755 10.8724L26.7694 12.3638C28.8571 14.9383 30 18.1451 30 21.4652C30 29.4857 23.409 36.011 15.3078 36.011C7.20654 36.011 0.615528 29.4857 0.615528 21.4652C0.615528 18.1451 1.75844 14.9383 3.84612 12.3638ZM4.31865 8.91353C4.04563 8.6435 3.60207 8.64377 3.32933 8.91353C3.05685 9.18356 3.05685 9.62296 3.32933 9.89299L4.77505 11.324C5.10081 10.9929 5.44243 10.6771 5.79771 10.3781L4.31865 8.91353ZM18.8059 2.62497C18.8059 2.24292 18.4922 1.93231 18.1063 1.93231H12.5092C12.1234 1.93231 11.8096 2.24292 11.8096 2.62497V3.73322H18.8059V2.62497ZM13.9085 5.11853V6.98492C14.8358 6.89887 15.7795 6.89887 16.707 6.98492V5.11853H13.9085ZM27.2862 8.91353C27.0135 8.64377 26.5696 8.6435 26.2969 8.91353L24.8178 10.3781C25.1731 10.6771 25.5147 10.9929 25.8405 11.324L27.2862 9.89299C27.5587 9.62296 27.5587 9.18356 27.2862 8.91353ZM15.3078 34.6257C22.6375 34.6257 28.6007 28.7219 28.6007 21.4652C28.6007 18.2641 27.4269 15.1799 25.2958 12.7802C24.7088 12.1192 24.0537 11.5153 23.3489 10.9845C21.5826 9.65381 19.4919 8.77798 17.3028 8.4514C16.6477 8.35426 15.9765 8.30475 15.3078 8.30475C14.639 8.30475 13.9678 8.35426 13.313 8.4514C11.1236 8.77798 9.03296 9.65381 7.26639 10.9845C6.56184 11.5153 5.90676 12.1192 5.31972 12.7802C3.18858 15.1799 2.01479 18.2641 2.01479 21.4652C2.01479 28.7219 7.97804 34.6257 15.3078 34.6257Z"/>
<path d="M15.3074 23.5431C14.15 23.5431 13.2085 22.611 13.2085 21.4652C13.2085 20.5623 13.7933 19.7922 14.6077 19.5062V14.5386C14.6077 14.156 14.9209 13.8459 15.3074 13.8459C15.6938 13.8459 16.007 14.156 16.007 14.5386V19.5062C16.8214 19.7922 17.4062 20.5623 17.4062 21.4652C17.4062 22.611 16.4648 23.5431 15.3074 23.5431ZM15.3074 20.7725C14.9215 20.7725 14.6077 21.0831 14.6077 21.4652C14.6077 21.8472 14.9215 22.1578 15.3074 22.1578C15.6932 22.1578 16.007 21.8472 16.007 21.4652C16.007 21.0831 15.6932 20.7725 15.3074 20.7725Z"/>
<path d="M7.85482 14.1576C7.86575 14.1449 7.87668 14.1322 7.88898 14.1203C7.9021 14.107 7.91603 14.0951 7.92997 14.0832C9.16307 12.8754 10.6864 11.9817 12.3396 11.4985C12.7104 11.3902 13.0993 11.5997 13.2086 11.9666C13.3179 12.3335 13.1064 12.7187 12.7358 12.827C11.5109 13.1852 10.3683 13.8043 9.39428 14.6309L9.86625 15.0981C10.1393 15.3687 10.1393 15.8073 9.86625 16.0779C9.72961 16.2131 9.5506 16.2808 9.37132 16.2808C9.19231 16.2808 9.01331 16.2131 8.87666 16.0779L8.40359 15.6095C7.1377 17.0668 6.38587 18.8607 6.23938 20.7725H6.91223C7.29866 20.7725 7.61186 21.0828 7.61186 21.4652C7.61186 21.8477 7.29866 22.1578 6.91223 22.1578H6.23938C6.38587 24.0699 7.1377 25.8635 8.40359 27.3208L8.87666 26.8525C9.14995 26.5822 9.59296 26.5822 9.86625 26.8525C10.1395 27.123 10.1395 27.5616 9.86625 27.8322L9.39318 28.3005C10.8651 29.5538 12.6771 30.2981 14.6082 30.4434V29.777C14.6082 29.3944 14.9214 29.0844 15.3078 29.0844C15.6942 29.0844 16.0074 29.3944 16.0074 29.777V30.4432C17.9385 30.2981 19.7504 29.5538 21.2224 28.3005L20.7493 27.8322C20.476 27.5616 20.476 27.123 20.7493 26.8525C21.0226 26.5822 21.4656 26.5822 21.7389 26.8525L22.212 27.3208C23.4779 25.8635 24.2297 24.0696 24.3762 22.1578H23.7034C23.3169 22.1578 23.0037 21.8477 23.0037 21.4652C23.0037 21.0826 23.3169 20.7725 23.7034 20.7725H24.3762C24.2297 18.8607 23.4779 17.0668 22.212 15.6095L21.7389 16.0779C21.6023 16.2131 21.4233 16.2808 21.2443 16.2808C21.065 16.2808 20.886 16.2131 20.7493 16.0779C20.4763 15.8073 20.4763 15.3687 20.7493 15.0981L21.2213 14.6309C20.2473 13.804 19.1047 13.1852 17.8798 12.827C17.5092 12.7187 17.2976 12.3335 17.407 11.9666C17.5163 11.5997 17.9049 11.3905 18.276 11.4985C19.9289 11.9814 21.4517 12.8749 22.6845 14.0821C22.699 14.0943 22.7132 14.1068 22.7266 14.12C22.7386 14.1319 22.7493 14.1444 22.7602 14.1568C24.7222 16.1174 25.8022 18.7105 25.8022 21.4652C25.8022 24.2195 24.7222 26.8124 22.7608 28.7727C22.7498 28.7854 22.7389 28.7981 22.7266 28.81C22.7146 28.8222 22.702 28.8327 22.6894 28.8436C20.7092 30.7857 18.0902 31.855 15.3078 31.855C12.5257 31.855 9.9067 30.786 7.92669 28.8441C7.91385 28.833 7.901 28.8222 7.88898 28.81C7.87695 28.7984 7.86629 28.7857 7.85536 28.7735C5.89339 26.8129 4.81334 24.2198 4.81334 21.4652C4.81334 18.7108 5.89339 16.1179 7.85482 14.1576Z"/>
<path d="M15.3077 12.4606C14.9215 12.4606 14.6081 12.1503 14.6081 11.768C14.6081 11.3857 14.9215 11.0753 15.3077 11.0753C15.6939 11.0753 16.0073 11.3857 16.0073 11.768C16.0073 12.1503 15.6939 12.4606 15.3077 12.4606Z"/>
</svg>

<svg xmlns="http://www.w3.org/2000/svg" width="30" height="37" fill="none"><path fill="#00B2FF" d="M3.846 12.364L2.34 10.872a2.065 2.065 0 010-2.938c.818-.81 2.15-.81 2.968 0l1.608 1.592a14.774 14.774 0 015.593-2.341V5.119H11.11c-.386 0-.7-.31-.7-.693V2.625a2.09 2.09 0 012.1-2.078h5.596a2.09 2.09 0 012.1 2.078v1.8a.696.696 0 01-.7.694h-1.4v2.066A14.772 14.772 0 0123.7 9.526l1.609-1.592c.817-.81 2.149-.81 2.968 0 .818.81.818 2.128 0 2.938l-1.507 1.492A14.44 14.44 0 0130 21.465c0 8.02-6.591 14.546-14.692 14.546-8.101 0-14.692-6.525-14.692-14.546a14.44 14.44 0 013.23-9.101zm.473-3.45a.706.706 0 00-.99 0 .689.689 0 000 .979l1.446 1.431a14.84 14.84 0 011.023-.946l-1.48-1.464zm14.487-6.289a.697.697 0 00-.7-.693H12.51c-.386 0-.7.31-.7.693v1.108h6.997V2.625zm-4.898 2.494v1.866a15.201 15.201 0 012.799 0V5.119h-2.799zm13.378 3.795a.706.706 0 00-.99 0l-1.478 1.464c.355.3.697.615 1.022.946l1.446-1.431a.689.689 0 000-.98zM15.308 34.626c7.33 0 13.293-5.904 13.293-13.16a13.07 13.07 0 00-3.305-8.686 13.352 13.352 0 00-9.988-4.475 13.353 13.353 0 00-8.041 2.68c-.705.53-1.36 1.134-1.947 1.795a13.069 13.069 0 00-3.305 8.685c0 7.257 5.963 13.16 13.293 13.16z"/><path fill="#00B2FF" d="M15.307 23.543a2.09 2.09 0 01-2.098-2.078c0-.903.584-1.673 1.399-1.959V14.54c0-.383.313-.693.7-.693.386 0 .699.31.699.693v4.967a2.083 2.083 0 011.4 1.96 2.09 2.09 0 01-2.1 2.077zm0-2.77c-.386 0-.7.31-.7.692 0 .382.315.693.7.693.386 0 .7-.31.7-.693a.697.697 0 00-.7-.692z"/><path fill="#00B2FF" d="M7.855 14.158a.642.642 0 01.075-.074 10.554 10.554 0 014.41-2.585.7.7 0 01.869.468.692.692 0 01-.473.86 9.146 9.146 0 00-3.342 1.804l.472.467c.273.27.273.71 0 .98a.701.701 0 01-.99 0l-.472-.468a8.874 8.874 0 00-2.165 5.163h.673c.387 0 .7.31.7.692a.696.696 0 01-.7.693H6.24a8.873 8.873 0 002.165 5.163l.473-.469a.705.705 0 01.99 0c.272.271.272.71 0 .98l-.474.468a9.06 9.06 0 005.215 2.143v-.666c0-.383.313-.693.7-.693.386 0 .7.31.7.693v.666a9.058 9.058 0 005.214-2.143l-.473-.468a.688.688 0 010-.98.705.705 0 01.99 0l.473.469a8.874 8.874 0 002.164-5.163h-.673c-.386 0-.7-.31-.7-.693 0-.382.314-.692.7-.692h.673a8.874 8.874 0 00-2.164-5.163l-.473.468a.701.701 0 01-.99 0 .688.688 0 010-.98l.472-.467a9.14 9.14 0 00-3.341-1.804.691.691 0 01-.473-.86.7.7 0 01.869-.469 10.551 10.551 0 014.409 2.584.723.723 0 01.042.038l.033.037a10.266 10.266 0 013.042 7.308c0 2.755-1.08 5.347-3.041 7.308l-.034.037-.038.034a10.476 10.476 0 01-7.381 3.011 10.476 10.476 0 01-7.381-3.01l-.038-.035-.034-.037a10.266 10.266 0 01-3.042-7.308c0-2.754 1.08-5.347 3.042-7.307z"/><path fill="#00B2FF" d="M15.308 12.46c-.386 0-.7-.31-.7-.692 0-.382.313-.693.7-.693.386 0 .7.31.7.693a.696.696 0 01-.7.693z"/></svg>
